X:1
T:As We Go Marching Home
T:As We Go Marching Home
T:James Henry Fillmore, Sr.
T:Lawrence W. Scott, 1890
T:Public Domain Courtesy of the Cyber Hymnal™
C:James Henry Fillmore, Sr.
Z:Public Domain
Z:Courtesy of the Cyber Hymnal™
%%score ( 1 2 ) ( 3 4 )
L:1/8
Q:1/4=110
M:4/4
K:G
V:1 treble 
V:2 treble 
V:3 bass 
V:4 bass 
V:1
 D2 | G2 F2 G2 A2 | (B3 A) G2 [FA]2 | [GB]2 [FA]2 [GB]2 [Gc]2 | ([Gd]3 [Fc]) [GB]2 [DG]2 | %5
w: 1.~The|bells of Heav’n are|ring- * ing, The|bells of Heav’n are|ring- * ing, As|
w: 2.~The|light of Heav’n is|shin- * ing, The|light of Heav’n is|shin- * ing, As|
w: 3.~The|harps of Heav’n are|play- * ing, The|harps of Heav’n are|play- * ing, As|
 [FA]2 [GB]2 [FA]2 [GB]2 | [FA]6 [DB]2 | [FA]2 [EG]2 [DF]2 [^CE]2 | (z2 DD D2) [CD]2 | %9
w: we go march- ing|home, As|we go march- ing|* * * home.|
w: we go march- ing|home, As|we go march- ing|* * * home.|
w: we go march- ing|home, As|we go march- ing|* * * home.|
 [B,G]2 [CF]2 [DG]2 [FA]2 | ([GB]3 [FA]) G2 [FA]2 | [GB]2 [FA]2 [GB]2 [Gc]2 | %12
w: * The bells of|Heav’n * are ring-|ing, The choirs of|
w: * The light of|Heav’n * is shin-|ing, The shade of|
w: * The harps of|Heav’n * are play-|ing, The heirs of|
 ([Gd]3 [Fc]) [GB]2 [Gd]2 | [Ge]2 [Gd]2 [Fc]2 [GB]2 | (d2 c2) [GB]2 [EA]2 | %15
w: Heav’n * are sing-|ing, The pearl- y|gates * are swing-|
w: night’s * de- clin-|ing, The clouds have|sil- * ver lin-|
w: Heav’n * are pray-|ing, To God their|hom- * age pay-|
 [DG]2 [DF]2 [FB]2 [FA]2 | G6 |] %17
w: ing, As we go|march-|
w: ing, As we go|march-|
w: ing, As we go|march-|
V:2
 D2 | G2 F2 G2 A2 | B3 A G2 x2 | x8 | x8 | x8 | x8 | x8 | D6 x2 | x8 | x4 G2 x2 | x8 | x8 | x8 | %14
 A4 x4 | x8 | G6 |] %17
V:3
 z2 | z8 | z6 D,2 | G,2 D,2 G,2 A,2 | (B,3 A,) G,2 [G,B,]2 | [D,D]2 [G,D]2 [D,D]2 [G,D]2 | %6
 D6 [G,D]2 | [A,D]2 A,2 [A,,A,]2 [A,,G,]2 | ([D,F,]2 [C,A,]2 [B,,G,]2) [A,,F,]2 | %9
 [G,,G,]2 [A,,D]2 [B,,D]2 [D,D]2 | (D3 C) [G,B,]2 [D,D]2 | [G,D]2 [D,D]2 [G,D]2 [A,D]2 | %12
 D4 [G,D]2 [B,D]2 | C2 [B,D]2 [A,D]2 [G,D]2 | D4 [G,D]2 [C,C]2 | [D,B,]2 [D,A,]2 [D,D]2 [D,C]2 | %16
 [G,,B,]6 |] %17
V:4
 x2 | x8 | x8 | x8 | x8 | x8 | (D,3 E, F,2) x2 | x2 A,2 x4 | x8 | x8 | G,4 x4 | x8 | (B,3 A,) x4 | %13
 C2 x6 | (F,2 D,2) x4 | x8 | x6 |] %17

